app/images/icons/phone.svg

<svg width="24" height="24" viewBox="0 0 24 24" fill="none" xmlns="http://www.w3.org/2000/svg">
<path d="M18.997 20C10.466 20.012 3.99101 13.46 4.00001 5.003C4.00001 4.45 4.44801 4 5.00001 4H7.64001C8.13501 4 8.55601 4.364 8.62901 4.854C8.80311 6.02905 9.14493 7.17305 9.64401 8.251L9.74701 8.473C9.8162 8.62239 9.83108 8.79124 9.78909 8.95043C9.7471 9.10962 9.65088 9.24917 9.51701 9.345C8.69901 9.929 8.38701 11.104 9.02401 12.02C9.82599 13.1733 10.827 14.1746 11.98 14.977C12.897 15.613 14.072 15.301 14.655 14.484C14.7507 14.3497 14.8904 14.2531 15.0498 14.211C15.2092 14.1688 15.3784 14.1836 15.528 14.253L15.749 14.355C16.827 14.855 17.971 15.197 19.146 15.371C19.636 15.444 20 15.865 20 16.361V19C20 19.1314 19.9741 19.2615 19.9238 19.3829C19.8735 19.5043 19.7997 19.6146 19.7068 19.7075C19.6138 19.8003 19.5034 19.874 19.382 19.9242C19.2606 19.9744 19.1304 20.0001 18.999 20H18.997Z" fill="white"/>
</svg>

<svg width="24" height="24" fill="none" xmlns="http://www.w3.org/2000/svg"><path d="M18.997 20C10.466 20.012 3.991 13.46 4 5.003 4 4.45 4.448 4 5 4h2.64c.495 0 .916.364.989.854a12.417 12.417 0 001.015 3.397l.103.222a.707.707 0 01-.23.872c-.818.584-1.13 1.759-.493 2.675a11.834 11.834 0 002.956 2.957c.917.636 2.092.324 2.675-.493a.706.706 0 01.873-.231l.221.102c1.078.5 2.222.842 3.397 1.016.49.073.854.494.854.99V19a1 1 0 01-1.001 1h-.002z" fill="#fff"/></svg>
